assets/Face with hand over mouth/Flat/face_with_hand_over_mouth_flat.svg

<svg width="32" height="32" viewBox="0 0 32 32" fill="none" xmlns="http://www.w3.org/2000/svg">
<path d="M15.9989 29.9978C25.3333 29.9978 29.9978 23.7303 29.9978 15.9989C29.9978 8.26751 25.3333 2 15.9989 2C6.66443 2 2 8.26751 2 15.9989C2 23.7303 6.66443 29.9978 15.9989 29.9978Z" fill="#FFB02E"/>
<path d="M10 15C10 16.1046 8.65685 17 7 17C5.34315 17 4 16.1046 4 15C4 13.8954 5.34315 13 7 13C8.65685 13 10 13.8954 10 15Z" fill="#FF6723"/>
<path d="M28 15C28 16.1046 26.6569 17 25 17C23.3431 17 22 16.1046 22 15C22 13.8954 23.3431 13 25 13C26.6569 13 28 13.8954 28 15Z" fill="#FF6723"/>
<path d="M8.98156 11.1909C9.02964 10.9436 9.13971 10.6405 9.34896 10.4125C9.52829 10.2171 9.84698 10 10.4999 10C11.1417 10 11.4685 10.2216 11.6572 10.4288C11.8753 10.6683 11.9804 10.9737 12.0147 11.1711C12.1092 11.7152 12.6269 12.0797 13.171 11.9853C13.7152 11.8908 14.0797 11.373 13.9852 10.8289C13.9062 10.374 13.6799 9.6794 13.1357 9.08196C12.562 8.45218 11.6955 8 10.4999 8C9.31564 8 8.45269 8.4313 7.87551 9.06013C7.32826 9.65637 7.10696 10.3533 7.01833 10.8091C6.91291 11.3513 7.26694 11.8762 7.80907 11.9816C8.3512 12.087 8.87614 11.733 8.98156 11.1909Z" fill="#402A32"/>
<path d="M19.9818 11.1909C20.0299 10.9436 20.14 10.6405 20.3492 10.4125C20.5285 10.2171 20.8472 10 21.5002 10C22.1419 10 22.4687 10.2216 22.6574 10.4288C22.8756 10.6683 22.9807 10.9737 23.0149 11.1711C23.1094 11.7152 23.6271 12.0797 24.1713 11.9853C24.7154 11.8908 25.0799 11.373 24.9854 10.8289C24.9064 10.374 24.6802 9.6794 24.1359 9.08196C23.5623 8.45218 22.6957 8 21.5002 8C20.3159 8 19.4529 8.4313 18.8758 9.06013C18.3285 9.65637 18.1072 10.3533 18.0186 10.8091C17.9132 11.3513 18.2672 11.8762 18.8093 11.9816C19.3514 12.087 19.8764 11.733 19.9818 11.1909Z" fill="#402A32"/>
<path d="M16.0433 17.6889C16.3645 17.2036 16.3113 16.5436 15.8839 16.1161C15.3957 15.628 14.6043 15.628 14.1161 16.1161L10.9999 19.2323V18.25C10.9999 17.5596 10.4403 17 9.7499 17C9.05954 17 8.50074 17.5595 8.46458 18.2489C8.37874 19.8853 8.11896 22.0714 7.4999 23C6.4999 24.5 6.49981 27.5 8.4999 29C12.316 31.862 16.8336 26.9817 17.2411 26.5267L19.8839 23.8839C20.372 23.3957 20.372 22.6043 19.8839 22.1161C19.632 21.8642 19.2993 21.7423 18.9692 21.7504L19.3231 21.4407C19.8427 20.9861 19.8953 20.1964 19.4407 19.6769C19.0237 19.2002 18.3245 19.1166 17.8107 19.457L18.8839 18.3839C19.372 17.8957 19.372 17.1043 18.8839 16.6161C18.3957 16.128 17.6043 16.128 17.1161 16.6161L16.0433 17.6889Z" fill="#FF822D"/>
</svg>

<svg xmlns="http://www.w3.org/2000/svg" width="32" height="32" fill="none"><path fill="#FFB02E" d="M15.999 29.998c9.334 0 13.999-6.268 13.999-14 0-7.73-4.665-13.998-14-13.998C6.665 2 2 8.268 2 15.999c0 7.731 4.664 13.999 13.999 13.999Z"/><path fill="#FF6723" d="M10 15c0 1.105-1.343 2-3 2s-3-.895-3-2 1.343-2 3-2 3 .895 3 2ZM28 15c0 1.105-1.343 2-3 2s-3-.895-3-2 1.343-2 3-2 3 .895 3 2Z"/><path fill="#402A32" d="M8.982 11.19c.048-.246.158-.55.367-.777.18-.196.498-.413 1.15-.413.643 0 .97.222 1.158.429.218.24.323.545.358.742a1 1 0 0 0 1.97-.342 3.544 3.544 0 0 0-.85-1.747C12.563 8.452 11.696 8 10.5 8c-1.184 0-2.047.431-2.624 1.06-.548.596-.769 1.293-.858 1.75a1 1 0 1 0 1.964.38ZM19.982 11.19c.048-.246.158-.55.367-.777.18-.196.498-.413 1.151-.413.642 0 .969.222 1.157.429.219.24.324.545.358.742a1 1 0 0 0 1.97-.342 3.543 3.543 0 0 0-.85-1.747C23.563 8.452 22.696 8 21.5 8c-1.184 0-2.047.431-2.624 1.06-.548.596-.769 1.293-.857 1.75a1 1 0 1 0 1.963.38Z"/><path fill="#FF822D" d="M16.043 17.689a1.25 1.25 0 0 0-1.927-1.573L11 19.232v-.982c0-.69-.56-1.25-1.25-1.25s-1.25.56-1.285 1.249C8.379 19.885 8.119 22.07 7.5 23c-1 1.5-1 4.5 1 6 3.816 2.862 8.334-2.018 8.741-2.473l2.643-2.643a1.25 1.25 0 0 0-.915-2.134l.354-.31a1.25 1.25 0 0 0-1.512-1.983l1.073-1.073a1.25 1.25 0 0 0-1.768-1.768l-1.073 1.073Z"/></svg>
